X:1
T:[ID 2-61]
T:[ID 2-61]
T:Bezeichnung standardisiert: Menuett Men\"uet 22.
T:Urheber unbekannt Datum in der hier transkribierten schriftlichen Quelle: 1767
C:Urheber unbekannt
C:Datum in der hier transkribierten schriftlichen Quelle: 1767
L:1/8
M:3/4
K:D
V:1 treble 
V:1
 a2 fdge | a4 d'2 | b2 g2 ba | a4 d'2 | b2 g2 ba | a2 gfed | ef g2 f2 | e6 :: e2 cAdB | e4 a2 | %10
 ed c2 B2 |{B} A6 | (df)(fa)(af) | (dg)(gb)(bg) | gefdec | d6 :| %16

